icons/laptop-cross.svg

<svg width="24" height="24" viewBox="0 0 24 24" fill="none" xmlns="http://www.w3.org/2000/svg">
<path fill-rule="evenodd" clip-rule="evenodd" d="M4.34998 6.89999C4.34998 5.71421 5.31418 4.75 6.49997 4.75H17.5C18.6858 4.75 19.65 5.71422 19.65 6.89999V16.25H4.34998V6.89999ZM2.84998 16.3509V6.89999C2.84998 4.88578 4.48576 3.25 6.49997 3.25H17.5C19.5142 3.25 21.15 4.88577 21.15 6.89999V16.3509C22.0619 16.6393 22.75 17.5104 22.75 18.5C22.75 19.7142 21.7142 20.75 20.5 20.75H3.5C2.28579 20.75 1.25 19.7142 1.25 18.5C1.25 17.5104 1.93805 16.6393 2.84998 16.3509ZM3.5 17.75C3.11421 17.75 2.75 18.1142 2.75 18.5C2.75 18.8858 3.11421 19.25 3.5 19.25H20.5C20.8858 19.25 21.25 18.8858 21.25 18.5C21.25 18.1142 20.8858 17.75 20.5 17.75H3.5ZM14.6303 8.16962C14.9232 8.46251 14.9232 8.93739 14.6303 9.23028L13.4606 10.3999L14.6303 11.5696C14.9232 11.8625 14.9232 12.3374 14.6303 12.6303C14.3374 12.9232 13.8625 12.9232 13.5696 12.6303L12.3999 11.4606L11.2303 12.6303C10.9374 12.9232 10.4625 12.9232 10.1696 12.6303C9.87673 12.3374 9.87673 11.8625 10.1696 11.5696L11.3393 10.3999L10.1696 9.23028C9.87673 8.93739 9.87673 8.46251 10.1696 8.16962C10.4625 7.87673 10.9374 7.87673 11.2303 8.16962L12.3999 9.33929L13.5696 8.16962C13.8625 7.87673 14.3374 7.87673 14.6303 8.16962Z" fill="black"/>
</svg>

<svg xmlns="http://www.w3.org/2000/svg" fill="none" viewBox="0 0 24 24">
  <path fill="#000" fill-rule="evenodd" d="M4.35 6.9c0-1.186.964-2.15 2.15-2.15h11c1.186 0 2.15.964 2.15 2.15v9.35H4.35V6.9Zm-1.5 9.45V6.9A3.652 3.652 0 0 1 6.5 3.25h11a3.652 3.652 0 0 1 3.65 3.65v9.45c.912.29 1.6 1.16 1.6 2.15 0 1.214-1.036 2.25-2.25 2.25h-17c-1.214 0-2.25-1.036-2.25-2.25 0-.99.688-1.86 1.6-2.15Zm.65 1.4c-.386 0-.75.364-.75.75s.364.75.75.75h17c.386 0 .75-.364.75-.75s-.364-.75-.75-.75h-17Zm11.13-9.58a.75.75 0 0 1 0 1.06l-1.17 1.17 1.17 1.17a.75.75 0 0 1-1.06 1.06l-1.17-1.17-1.17 1.17a.75.75 0 0 1-1.06-1.06l1.17-1.17-1.17-1.17a.75.75 0 0 1 1.06-1.06l1.17 1.17 1.17-1.17a.75.75 0 0 1 1.06 0Z" clip-rule="evenodd"/>
</svg>
